services/scalability_icon.svg

<?xml version="1.0" encoding="UTF-8"?>
<svg fill="none" viewBox="0 0 250 251" xmlns="http://www.w3.org/2000/svg">
    <g clip-path="url(#a)">
        <rect y="213.66" width="40" height="36.743" fill="#000"/>
        <rect x="69.667" y="177.54" width="40" height="72.857" fill="#000"/>
        <path d="m139.33 139.52h40v110.89h-40v-110.89z" fill="#000"/>
        <rect x="209" y="82.446" width="40" height="167.96" fill="#000"/>
        <path d="m237.96 11.14 7.91 49.827-9.876 1.5679-5.274-33.219-41.887 56.817-8.05-5.9341 42.005-56.976-30.972 4.0755-1.305-9.9145 47.449-6.2436z" clip-rule="evenodd" fill="#000" fill-rule="evenodd"/>
        <path d="m16.481 204.54-7.071-7.071 46.931-46.931 7.0711 7.071-46.931 46.931z" fill="#000"/>
        <path d="m149.31 111.06-21.716 7.53c0.951 3.193 1.464 6.574 1.469 10.075l25.889-8.977c-2.44-2.427-4.378-5.36-5.642-8.628z" clip-rule="evenodd" fill="#000" fill-rule="evenodd"/>
        <path d="m96.238 78.481h-11.993v9.2434c-1.8457 0.2471-3.6559 0.6067-5.4233 1.0715l-3.5345-8.533-11.08 4.5896 3.5336 8.5308c-1.5982 0.9309-3.1335 1.9579-4.598 3.0731l-6.5297-6.5297-8.4806 8.4806 6.5217 6.5216c-1.1194 1.464-2.1505 2.999-3.0854 4.598l-8.5105-3.525-4.5897 11.08 8.4931 3.518c-0.4696 1.773-0.8333 3.588-1.0837 5.44h-9.1912v11.993h9.175c0.2459 1.856 0.6053 3.675 1.0712 5.452l-8.4643 3.506 4.5896 11.081 8.4538-3.502c0.9353 1.608 1.9679 3.153 3.0898 4.626l-6.4694 6.47 8.4806 8.48 6.4613-6.461c1.4728 1.126 3.0175 2.163 4.6261 3.102l-3.4932 8.434 11.08 4.589 3.4894-8.424c1.7818 0.471 3.607 0.834 5.4684 1.083v9.123h11.993v-9.123c1.8615-0.249 3.6867-0.612 5.4684-1.083l3.49 8.424 11.08-4.589-3.493-8.434c1.608-0.939 3.153-1.976 4.626-3.102l6.461 6.461 8.481-8.48-6.47-6.47c1.122-1.473 2.155-3.018 3.09-4.626l8.454 3.502 4.59-11.081-8.465-3.506c0.466-1.777 0.826-3.596 1.071-5.452h9.175v-11.993h-9.191c-0.25-1.852-0.614-3.667-1.083-5.44l8.493-3.518-4.59-11.08-8.511 3.525c-0.934-1.599-1.965-3.134-3.085-4.598l6.522-6.5215-8.481-8.4806-6.53 6.5297c-1.464-1.1153-2.999-2.1423-4.598-3.0733l3.534-8.5307-11.08-4.5897-3.535 8.5331c-1.7674-0.4649-3.5776-0.8244-5.4234-1.0715v-9.2434zm-5.9967 80.939c15.09 0 27.323-12.233 27.323-27.323s-12.233-27.323-27.323-27.323-27.323 12.233-27.323 27.323 12.233 27.323 27.323 27.323z" clip-rule="evenodd" fill="#47B947" fill-rule="evenodd"/>
        <path d="m170.09 68.086-7.472 1.357 1.046 5.7588c-1.122 0.3628-2.209 0.7916-3.258 1.2812l-3.167-4.9163-6.384 4.1131 3.167 4.915c-0.891 0.7607-1.731 1.5743-2.517 2.4348l-4.807-3.3293-4.324 6.2431 4.801 3.3251c-0.532 1.0389-1.001 2.112-1.402 3.2136l-5.701-1.2333-1.606 7.4225 5.689 1.2308c-0.092 1.1573-0.113 2.3293-0.059 3.5113l-5.726 1.04 1.357 7.472 5.716-1.038c0.363 1.128 0.793 2.221 1.284 3.276l-4.877 3.142 4.113 6.384 4.871-3.139c0.765 0.897 1.583 1.742 2.448 2.533l-3.298 4.763 6.243 4.324 3.294-4.757c1.045 0.535 2.125 1.006 3.233 1.409l-1.222 5.65 7.423 1.605 1.221-5.643c1.163 0.092 2.341 0.112 3.529 0.056l1.032 5.684 7.472-1.357-1.032-5.684c1.132-0.366 2.228-0.799 3.284-1.293l3.128 4.853 6.383-4.113-3.13-4.859c0.896-0.767 1.741-1.588 2.531-2.456l4.757 3.294 4.324-6.243-4.763-3.298c0.532-1.045 1.001-2.124 1.402-3.232l5.663 1.225 1.605-7.422-5.67-1.227c0.089-1.16 0.107-2.334 0.051-3.518l5.716-1.0379-1.357-7.472-5.726 1.0399c-0.366-1.1252-0.798-2.2153-1.291-3.2665l4.893-3.1527-4.113-6.3839-4.903 3.1592c-0.764-0.8901-1.58-1.7298-2.443-2.5153l3.325-4.8009-6.243-4.324-3.329 4.8069c-1.038-0.5291-2.111-0.9953-3.212-1.3944l1.236-5.7146-7.422-1.6057-1.237 5.7162c-1.154-0.0897-2.322-0.1089-3.5-0.054l-1.046-5.7587zm5.422 51.104c9.401-1.708 15.638-10.713 13.931-20.114s-10.713-15.638-20.114-13.931-15.638 10.713-13.931 20.114c1.707 9.401 10.713 15.638 20.114 13.931z" clip-rule="evenodd" fill="#47B947" fill-rule="evenodd"/>
    </g>
    <defs>
        <clipPath id="a">
            <rect transform="translate(0 .40076)" width="250" height="250" fill="#fff"/>
        </clipPath>
    </defs>
</svg>

<svg width="250" height="251" viewBox="0 0 250 251" fill="none" xmlns="http://www.w3.org/2000/svg">
<g clip-path="url(#clip0)">
<rect y="213.658" width="40" height="36.7432" fill="black"/>
<rect x="69.6667" y="177.544" width="40" height="72.8568" fill="black"/>
<path d="M139.333 139.515H179.333V250.401H139.333V139.515Z" fill="black"/>
<rect x="209" y="82.446" width="40" height="167.955" fill="black"/>
<path fill-rule="evenodd" clip-rule="evenodd" d="M237.955 11.1397L245.865 60.9667L235.989 62.5346L230.715 29.3155L188.828 86.1321L180.778 80.198L222.783 23.2223L191.811 27.2978L190.506 17.3833L237.955 11.1397Z" fill="black"/>
<path d="M16.4806 204.545L9.40958 197.474L56.3407 150.543L63.4118 157.614L16.4806 204.545Z" fill="black"/>
<path fill-rule="evenodd" clip-rule="evenodd" d="M149.306 111.063L127.59 118.593C128.541 121.786 129.054 125.167 129.059 128.668L154.948 119.691C152.508 117.264 150.57 114.331 149.306 111.063Z" fill="black"/>
<path fill-rule="evenodd" clip-rule="evenodd" d="M96.2376 78.4811H84.2442V87.7245C82.3985 87.9716 80.5883 88.3312 78.8209 88.796L75.2864 80.263L64.2059 84.8526L67.7395 93.3834C66.1413 94.3143 64.606 95.3413 63.1415 96.4565L56.6118 89.9268L48.1312 98.4074L54.6529 104.929C53.5335 106.393 52.5024 107.928 51.5675 109.527L43.057 106.002L38.4673 117.082L46.9604 120.6C46.4908 122.373 46.1271 124.188 45.8767 126.04H36.6855L36.6855 138.033H45.8605C46.1064 139.889 46.4658 141.708 46.9317 143.485L38.4674 146.991L43.057 158.072L51.5108 154.57C52.4461 156.178 53.4787 157.723 54.6006 159.196L48.1312 165.666L56.6118 174.146L63.0731 167.685C64.5459 168.811 66.0906 169.848 67.6992 170.787L64.206 179.221L75.2864 183.81L78.7758 175.386C80.5576 175.857 82.3828 176.22 84.2442 176.469V185.592H96.2376V176.469C98.0991 176.22 99.9243 175.857 101.706 175.386L105.196 183.81L116.276 179.221L112.783 170.787C114.391 169.848 115.936 168.811 117.409 167.685L123.87 174.146L132.351 165.666L125.881 159.196C127.003 157.723 128.036 156.178 128.971 154.57L137.425 158.072L142.015 146.991L133.55 143.485C134.016 141.708 134.376 139.889 134.621 138.033H143.796V126.04H134.605C134.355 124.188 133.991 122.373 133.522 120.6L142.015 117.082L137.425 106.002L128.914 109.527C127.98 107.928 126.949 106.393 125.829 104.929L132.351 98.4075L123.87 89.9269L117.34 96.4566C115.876 95.3413 114.341 94.3143 112.742 93.3833L116.276 84.8526L105.196 80.2629L101.661 88.796C99.8936 88.3311 98.0834 87.9716 96.2376 87.7245V78.4811ZM90.2409 159.42C105.331 159.42 117.564 147.187 117.564 132.097C117.564 117.007 105.331 104.774 90.2409 104.774C75.1508 104.774 62.9179 117.007 62.9179 132.097C62.9179 147.187 75.1508 159.42 90.2409 159.42Z" fill="#47B947"/>
<path fill-rule="evenodd" clip-rule="evenodd" d="M170.094 68.0856L162.622 69.4426L163.668 75.2014C162.546 75.5642 161.459 75.993 160.41 76.4826L157.243 71.5663L150.859 75.6794L154.026 80.5944C153.135 81.3551 152.295 82.1687 151.509 83.0292L146.702 79.6999L142.378 85.943L147.179 89.2681C146.647 90.307 146.178 91.3801 145.777 92.4817L140.076 91.2484L138.47 98.6709L144.159 99.9017C144.067 101.059 144.046 102.231 144.1 103.413L138.374 104.453L139.731 111.925L145.447 110.887C145.81 112.015 146.24 113.108 146.731 114.163L141.854 117.305L145.967 123.689L150.838 120.55C151.603 121.447 152.421 122.292 153.286 123.083L149.988 127.846L156.231 132.17L159.525 127.413C160.57 127.948 161.65 128.419 162.758 128.822L161.536 134.472L168.959 136.077L170.18 130.434C171.343 130.526 172.521 130.546 173.709 130.49L174.741 136.174L182.213 134.817L181.181 129.133C182.313 128.767 183.409 128.334 184.465 127.84L187.593 132.693L193.976 128.58L190.846 123.721C191.742 122.954 192.587 122.133 193.377 121.265L198.134 124.559L202.458 118.316L197.695 115.018C198.227 113.973 198.696 112.894 199.097 111.786L204.76 113.011L206.365 105.589L200.695 104.362C200.784 103.202 200.802 102.028 200.746 100.844L206.462 99.8061L205.105 92.3341L199.379 93.374C199.013 92.2488 198.581 91.1587 198.088 90.1075L202.981 86.9548L198.868 80.5709L193.965 83.7301C193.201 82.84 192.385 82.0003 191.522 81.2148L194.847 76.4139L188.604 72.0899L185.275 76.8968C184.237 76.3677 183.164 75.9015 182.063 75.5024L183.299 69.7878L175.877 68.1821L174.64 73.8983C173.486 73.8086 172.318 73.7894 171.14 73.8443L170.094 68.0856ZM175.516 119.19C184.917 117.482 191.154 108.477 189.447 99.0758C187.74 89.6746 178.734 83.4374 169.333 85.1448C159.932 86.8522 153.695 95.8576 155.402 105.259C157.109 114.66 166.115 120.897 175.516 119.19Z" fill="#47B947"/>
</g>
<defs>
<clipPath id="clip0">
<rect width="250" height="250" fill="white" transform="translate(0 0.400757)"/>
</clipPath>
</defs>
</svg>
